icons/tools-fill.svg

<svg xmlns="http://www.w3.org/2000/svg" width="24" height="24" fill="none"><g clip-path="url(#a)"><g><path fill="#121212" d="M5.33 3.27099C5.95405 3.04837 6.62847 3.00745 7.27485 3.15299C7.92124 3.29854 8.51304 3.62457 8.98144 4.09319C9.44984 4.5618 9.77561 5.15374 9.92087 5.80019C10.0661 6.44664 10.0249 7.12105 9.802 7.74499L20.647 18.59L18.525 20.711L7.68 9.86699C7.05595 10.0896 6.38153 10.1305 5.73514 9.98499C5.08875 9.83945 4.49696 9.51341 4.02856 9.0448C3.56015 8.57619 3.23439 7.98425 3.08913 7.3378C2.94387 6.69135 2.98509 6.01694 3.208 5.39299L5.444 7.62999C5.58237 7.77326 5.74788 7.88753 5.93089 7.96615C6.1139 8.04476 6.31073 8.08614 6.5099 8.08787C6.70906 8.0896 6.90658 8.05165 7.09093 7.97623C7.27527 7.9008 7.44275 7.78943 7.58359 7.64859C7.72443 7.50775 7.83581 7.34027 7.91123 7.15592C7.98665 6.97158 8.0246 6.77406 8.02287 6.57489C8.02114 6.37572 7.97976 6.17889 7.90115 5.99589C7.82254 5.81288 7.70826 5.64736 7.565 5.50899L5.329 3.26999L5.33 3.27099ZM15.697 5.15499L18.879 3.38699L20.293 4.80099L18.525 7.98299L16.757 8.33699L14.637 10.458L13.222 9.04399L15.343 6.92299L15.697 5.15499ZM8.626 12.933L10.747 15.055L5.797 20.005C5.52403 20.2754 5.15771 20.4308 4.77358 20.439C4.38944 20.4473 4.01678 20.3078 3.73245 20.0494C3.44812 19.791 3.27379 19.4333 3.24543 19.0501C3.21706 18.6669 3.33682 18.2875 3.58 17.99L3.677 17.883L8.627 12.933H8.626Z"/></g></g><defs><clipPath id="a"><rect width="24" height="24" fill="white"/></clipPath></defs></svg>

<svg width="24" height="24" fill="none" xmlns="http://www.w3.org/2000/svg"><g clip-path="url(#a)"><path d="M5.33 3.271a3.5 3.5 0 0 1 4.472 4.474L20.647 18.59l-2.122 2.121L7.68 9.867a3.5 3.5 0 0 1-4.472-4.474L5.444 7.63a1.5 1.5 0 1 0 2.121-2.121L5.329 3.27l.001.001Zm10.367 1.884 3.182-1.768 1.414 1.414-1.768 3.182-1.768.354-2.12 2.121-1.415-1.414 2.121-2.121.354-1.768Zm-7.071 7.778 2.121 2.122-4.95 4.95A1.5 1.5 0 0 1 3.58 17.99l.097-.107 4.95-4.95h-.001Z" /></g><defs><clipPath id="a"><path fill="#fff" d="M0 0h24v24H0z"/></clipPath></defs></svg>
